X: 12220
T: Fair Jenny's
R: jig
M: 6/8
K: Dmajor
|:f3 fgf|ecA ecA|Bcd ecA|Bcd e2g|
f3 fed|ecA ecA|Bcd ecA|ABc d2A:|
|:B3 B=cB|GBB B=cB|ADD dDD|cDD ADD|
B3 B=cB|GBB B=cB|ABA ABc|dAF D3:|

